X:1
T:Title
%%score 1 2 ( 3 4 )
L:1/8
M:4/2
K:F
V:1 treble nm="Part_1"
V:2 treble nm="Part_2"
V:3 bass nm="Part_3"
V:4 bass 
V:1
 z4 z2 FG A3 A A2 AB | c3 c c2 d3 c =B2 c4 | c4 z2 GA B3 B B2 Bc | d3 d d2 A3 G ^F2 G4 | %4
 G6 =BA c4 c2 cB | d4 d2 A2 =B2 c2 d4 | c2 G2 A2 B2 c4 B4 | %7
 d2 A2 B/>c/d/>c/ B/>c/A/>B/ G/>A/B/>A/ G/>A/F/>G/ E/F/G/E/ F/G/A/B/ | c6 BA A2 FF G4- | %9
 G/E/F/G/ A/G/A/F/ G/A/B/G/ A/G/A/B/ c/B/A/B/ G/A/B/A/ G3 F | F8 z8 | z4 F4 c3 c c2 B2 | %12
 d4 G6 c3 B A2- | A2 dc =B2 c2 A4 G4 | z2 dc =B2 c2 A4 G2 G2- | GA F2 E4 D2 d3 _e c2 | %16
 d4 c2 G2 B2 c2 d2 cB | A2 B2 c2 BA G2 F/G/A/F/ G4 |[M:4/4] F8 |[M:3/2] z12 | z12 | %21
 d4 B2 c2 d2 B2 | c8 A4 | B4 G2 A2 B2 G2 | A8 F4 | G2 E2 F2 G2 A2 =B2 | c2 A2 =B2 c2 d2 B2 | c12 | %28
 z12 | c4 A2 B2 c2 A2 | B8 G4 | A4 F2 G2 A2 F2 | G8 E4 | F2 E2 F2 G2 A2 B2 | c4 G2 F2 G2 A2 | %35
 B8 G2 A2 | B2 c2 A8 | G12 | G4 E2 F2 G2 E2 | F8 D4 | d2 c2 B2 A2 G4 | c2 B2 A2 G2 ^F4 | %42
 G4 (^F2 G2 A2 F2) | G12 | d2 c2 B2 A2 G4 | c2 B2 A2 G2 F4 | B2 A2 G2 F2 E4 |[M:4/4] F8 | %48
[M:4/2] z8 c2 cB A2 F2 | G16 | G2 c4 A2 d2 dc B2 G2 | A4 G4 z2 G3 G A2 | B4 A4 z2 AB c2 c2 | %53
 F4 G4 d8- | d4 dc/B/ A2 =B8 | c8- c/A/B/c/ G/A/B/A/ F/G/A/G/ E/F/G/F/ |[M:4/4] F8 |[M:3/2] z12 | %58
 F6 G2 A4 | B8 G4 | A6 B2 c4 | d12 |[M:4/4] B3 G c4- | c4 =B4 | c8 |[M:3/2] A6 B2 c4 | d8 ^F4 | %67
 G6 A2 B4 | c12 |[M:4/4] F6 D2 | G8- | G8 | G8 | z4 c4- | c4 A4 | %75
 d/B/c/d/ B/c/d/B/ c/A/B/c/ A/B/c/A/ | B/G/A/B/ G/A/B/G/ A/F/G/A/ F/G/A/F/ | %77
 G/E/F/G/ F/G/A/B/ c/A/B/G/ A/G/G/F/ | G8 | F8- | F8 |] %81
V:2
 z4 z2 FG A3 A A2 AB | c3 c c2 d3 c =B2 c4 | c4 z2 GA B3 B B2 Bc | d3 d d2 A3 G ^F2 G4 | %4
 G6 =BA c4 c2 cB | d4 d2 A2 =B2 c2 d4 | c2 G2 A2 B2 c4 B4 | %7
 d2 A2 B/c/d/c/ B/c/A/B/ G/A/B/A/ G/A/F/G/ E/F/G/E/ F/G/A/B/ | c6 BA A2 FF G4 | %9
 G/E/F/G/ A/G/A/F/ G/A/B/G/ A/G/A/B/ c/B/A/B/ G/A/B/G/ TG3 F | F8 z8 | z4 F4 c3 c c2 B2 | %12
 d4 G6 c3 B A2- | A2 dc =B2 c2 A4 G4 | z2 dc =B2 c2 A4 G2 G2- | GA F2 E4 D2 d3 _e c2 | %16
 d4 c2 G2 B2 c2 d2 cB | A2 B2 c2 BA G2 F/G/A/F/ G4 |[M:4/4] F8 |[M:3/2] z12 | z12 | %21
 d4 B2 c2 d2 B2 | c8 A4 | B4 G2 A2 B2 G2 | A8 F4 | G2 E2 F2 G2 A2 =B2 | c2 A2 =B2 c2 d2 B2 | c12 | %28
 z12 | c4 A2 B2 c2 A2 | B8 G4 | A4 F2 G2 A2 F2 | G8 E4 | F2 E2 F2 G2 A2 B2 | c4 G2 F2 G2 A2 | %35
 B8 G2 A2 | B2 c2 A8 | G12 | G4 E2 F2 G2 E2 | F8 D4 | d2 c2 B2 A2 G4 | c2 B2 A2 G2 ^F4 | %42
 G4 (^F2 G2 A2 F2) | G12 | d2 c2 B2 A2 G4 | c2 B2 A2 G2 F4 | B2 A2 G2 F2 E4 |[M:4/4] F8 | %48
[M:4/2] z8 c2 cB A2 F2 | G8- G8 | G2 c4 A2 d2 dc B2 G2 | A4 G4 z2 G3 G A2 | B4 A4 z2 AB c2 c2 | %53
 F4 G4 d8- | d4 dc/B/ A2 =B8 | c8- c/A/B/c/ G/A/B/A/ F/G/A/G/ E/F/G/F/ |[M:4/4] F8 |[M:3/2] z12 | %58
 F6 G2 A4 | B8 G4 | A6 B2 c4 | d12 |[M:4/4] B3 G c4- | c4 =B4 | c8 |[M:3/2] A6 B2 c4 | d8 ^F4 | %67
 G6 A2 B4 | c12 |[M:4/4] F6 D2 | G8- | G8 | G8 | z4 c4- | c4 A4 | %75
 d/B/c/d/ B/c/d/B/ c/A/B/c/ A/B/c/A/ | B/G/A/B/ G/A/B/G/ A/F/G/A/ F/G/A/F/ | %77
 G/E/F/G/ F/G/A/B/ c/A/B/G/ A/G/TG/F/ | G8 | F8- | F8 |] %81
V:3
 z2 B,,C, D,3 D, D,2 D,E, F,3 F, | x8 G,4 x4 | C,2 C,D, _E,3 E, E,2 E,F, G,2 G,,A,, | %3
 B,,6 C,2 D,4 G,,4 | G,,4 G,,4 C,4 C,2 F,2 | D,4 D,4 G,,2 C,2 G,,4 | C,4 F,2 B,,2 F,,4 B,,4 | %7
 B,,2 D,2 G,,4 G,,4 D,4 | C,2 A,,2 D,2 A,,2 D,4 G,,A,,=B,,G,, | C,8- C,8 | %10
 F,,4 F,,4 C,2 D,2 E,2 C,2 | D,2 E,2 F,2 D,2 C,6 G,,2 | D,4 =B,,4 C,3 B,, A,,3 G,, | %13
 F,,4 G,,2 C,2 D,2 D,C, =B,,2 C,2 | A,,2 D,2 G,,2 C,2 D,2 D,C, =B,,2 C,2 | D,4 A,,4 B,,4 C,4 | %16
 G,,4 C,4 G,,2 A,,2 B,,2 C,2 | D,2 C,B,, A,,2 B,,2 C,8 |[M:4/4] F,,8 |[M:3/2] B,,8 G,,4 | %20
 A,,8 F,,4 | B,,4 G,,8 | A,,4 F,,8 | G,,4 C,8 | F,,4 F,8 | C,12 | E,4 G,8 | C,8 A,,4 | B,,8 G,,4 | %29
 A,,4 F,,8 | G,,4 G,4 E,4 | F,4 D,8 | E,4 C,8 | D,12 | C,4 _E,8 | D,4 _E,8 | C,4 D,8 | G,,12 | %38
 C,12 | D,12 | B,,8 C,4 | A,,8 D,4 | G,,4 D,8 | G,,12 | B,,8 C,4 | A,,8 D,4 | G,,8 C,4 | %47
[M:4/4] F,,8 |[M:4/2] B,,2 B,,C, D,2 F,2 E,4 F,4 | C,6 B,,A,, G,,8 | C,4 F,4 D,4 G,,4 | %51
 D,4 G,,4 C,6 A,,2 | G,,4 F,,4 F,6 E,2 | D,4 C,4 =B,,6 C,2 | D,8 G,,8 | A,,6 B,,2 C,8 | %56
[M:4/4] F,,8 |[M:3/2] F,,6 G,,2 A,,4 | B,,8 A,,4 | G,,12 | D,8 C,4 | B,,12 |[M:4/4] _E,6 F,2 | %63
 G,8 | C,8 |[M:3/2] F,,6 G,,2 A,,4 | B,,8 D,4 | G,,12 | A,,12 |[M:4/4] D,4 D,4 | =B,,4 C,4 | G,,8 | %72
 C,8 | C,8 | A,,4 F,,4 | B,,4 A,,4 | G,,4 F,,4 | C,8- | C,8 | F,,8- | F,,8 |] %81
V:4
 x16 | F,4 E,2 D,2 G,4 C,4 | x16 | x16 | x16 | x16 | x16 | x16 | x16 | x16 | x16 | x16 | x16 | %13
 x16 | x16 | x16 | x16 | x16 |[M:4/4] x8 |[M:3/2] x12 | x12 | x12 | x12 | x12 | x12 | x12 | x12 | %27
 x12 | x12 | x12 | x12 | x12 | x12 | x12 | x12 | x12 | x12 | x12 | x12 | x12 | x12 | x12 | x12 | %43
 x12 | x12 | x12 | x12 |[M:4/4] x8 |[M:4/2] x16 | x16 | x16 | x16 | x16 | x16 | x16 | x16 | %56
[M:4/4] x8 |[M:3/2] x12 | x12 | x12 | x12 | x12 |[M:4/4] x8 | x8 | x8 |[M:3/2] x12 | x12 | x12 | %68
 x12 |[M:4/4] x8 | x8 | x8 | x8 | x8 | x8 | x8 | x8 | x8 | x8 | x8 | x8 |] %81

